X:13
T:The Rollicking Irishman
T:Father O'Flynn
N:Jig   Allan's  #13
N:Trad/Anon
B:Allan's Irish Fiddler (pub. Mozart Allen,  Glascow) date unknown
Z:FROM ALLAN'S TO NOTEWORTHY, FROM NOTEWORTHY TO ABC, MIDI AND .TXT BY VINCE
BRENNAN Dec. 2002 (HTTP://WWW.SOSYOURMOM.COM)
I:abc2nwc
M:6/8
L:1/8
K:D
A|dAF DFA|ded cBA|dcd efg|fdf ecA|
dAF DFA|ded cBA|dcd efg|fdd d2:|
|:g|fdf fga|efe edc|dcd Bed|cAAA2B|
BGB Bcd|AFD DFA|dcd efg|fdd d2:|
